assets/mixcloud/original.svg

<svg viewBox="0 0 24 24" xmlns="http://www.w3.org/2000/svg" fill="#5000FF"><path d="m2.462 8.596 1.372 6.49h.319l1.372-6.49h2.462v6.808h-1.245v-5.68l.232-.81h-.402l-1.43 6.49h-2.288l-1.44-6.49h-.391l.222.81v5.68h-1.245v-6.808zm21.538.034v1.429l-2.743 1.941 2.743 1.941v1.43l-3.235-2.329h-.348l-3.226 2.329v-1.43l2.734-1.94-2.733-1.942v-1.429l3.225 2.338h.348zm-7.869 2.75v1.24h-6.827v-1.24z"/></svg>

<svg xmlns="http://www.w3.org/2000/svg" fill="#5000ff" viewBox="0 0 24 24"><path d="m2.462 8.596 1.372 6.49h.319l1.372-6.49h2.462v6.808H6.742v-5.68l.232-.81h-.402l-1.43 6.49H2.854l-1.44-6.49h-.391l.222.81v5.68H0V8.596zM24 8.63v1.429L21.257 12 24 13.941v1.43l-3.235-2.329h-.348l-3.226 2.329v-1.43l2.734-1.94-2.733-1.942V8.63l3.225 2.338h.348zm-7.869 2.75v1.24H9.304v-1.24z"/></svg>
